static/img/svg/body.svg

<svg xmlns="http://www.w3.org/2000/svg" width="24" height="24" viewBox="0 0 24 24"><circle cx="12" cy="4" r="2"/><path d="M20 7H4v2h5v13h2v-7h2v7h2V9h5z"/></svg>

<svg xmlns="http://www.w3.org/2000/svg" width="24" height="24" viewBox="0 0 24 24"><circle cx="12" cy="4" r="2"/><path d="M15 22L15 9 20 9 20 7 4 7 4 9 9 9 9 22 11 22 11 15 13 15 13 22z"/></svg>
